X:1
T:Title
%%score { ( 1 3 ) | ( 2 4 ) }
L:1/8
Q:1/4=100
M:4/4
K:Eb
V:1 treble nm="Grand Piano"
V:3 treble 
V:2 bass 
V:4 bass 
V:1
 [GB]3 [EG] [CA][Ec][Ae][Ec] | [GB]4 [EG]4 | [EG]3 [CA] [DG][DF]B,[DF] | z2 z G [GB]4 | %4
w: Thoro~Harris * * * * *||||
 [GB]3 [EG] [EA][Ec][Ae][Ac] | [GB]4 [EG]4 | [Ac]3 [_Ge] [=GB]G [=A,DF]2 | [G,E]6 z2 | %8
w: ||||
 [B,GB]2 [_Gc]2 .[B,=GB]2 z2 | [EAc]2 [EAc]2 [EAc]2 z2 | [E=Ac]2 [EAd]2 A-[Ac]A-[Ae] | %11
w: |||
 z4 f2[K:bass] z2 | z4 [=GB]2 z2 | z4 c2 z2 |[M:17/16] [=Ae]-<[Ae]dcBc[_Ad][Ge]3/2 | %15
w: ||||
[M:4/4] [EG]2 [A,DF]2 [G,E]4 |] %16
w: |
V:2
 E,B,E_D E,A,CA, | E,G,CB, =A,B,G,E, | B,,E,G,E, A,B,,D,B,, | C,=B,,C,_B,, E,F,E,D, | %4
 E,G,E,_D, C,A,,C,=D, | E,G,B,G, E,B,_DB, | z4 B,2 z2 | E,C,B,,G,, E,,2 z2 | E,2 [E,=A,]2 z CDE | %9
 A,2 A,2 A,B,A,_G, | F,2 F,2 z E z[K:treble] C | [B,DB]2 [CE=A]2 .[B,D_A]2 z2 | %12
 [E,B,]2 [E,A,]2 .[E,B,]2 z2 | [A,EA]2 [A,EA]2 [A,EA]2 z2 | %14
[M:17/16][K:bass] z/ z/ z[K:treble] C z[K:bass] [G,D] z B,/-B,-<B, |[M:4/4] B,2 B,,2 E,4 |] %16
V:3
 x8 | x8 | x8 | E4 z4 | x8 | x8 | x8 | x8 | x8 | x8 | z4 .[Fc]2 .[Dd]2 | f2 f2 z[K:bass] A,G,F, | %12
 [GB]2 [_Gc]2 z CDE | c2 c2 z B,A,G, |[M:17/16] x17/2 |[M:4/4] x8 |] %16
V:4
 x8 | x8 | x8 | x8 | x8 | x8 | E,A,C=A, z E B,,2 | x8 | z4 E,2 z2 | x8 | z4 F,2 F,2[K:treble] | %11
 x8 | x8 | x8 |[M:17/16][K:bass] [F,C]-<[F,C][K:treble]_G-[=A,G][K:bass]B,-[F,B,E]F,E,3/2 | %15
[M:4/4] x8 |] %16

